icons/.local/share/icons/We10X-black-dark/actions/32/document-edit-decrypt.svg

<svg version="1.1" viewBox="0 0 32 32" xmlns="http://www.w3.org/2000/svg">
 <defs>
  <style id="current-color-scheme" type="text/css">.ColorScheme-Text {
                color:#dedede;
            }</style>
 </defs>
 <path class="ColorScheme-Text" d="m9 15v-2h2v2zm6 0v-2h2v2zm6 0v-2h2v2zm-15-3v-2h2v2zm6 0v-2h2v2zm6 0v-2h2v2zm6 0v-2h2v2zm-15-3v-2h2v2zm6 0v-2h2v2zm6 0v-2h2v2zm-15-3v-2h2v2zm6 0v-2h2v2zm6 0v-2h2v2zm6 0v-2h2v2z" fill="currentColor"/>
 <path class="ColorScheme-Text" d="m6 16v9c0 1.662 1.338 3 3 3h14c1.662 0 3-1.338 3-3v-9h-1v9c0 1.108-0.892 2-2 2h-14c-1.108 0-2-0.892-2-2v-9h-1z" fill="currentColor"/>
</svg>

<!DOCTYPE svg>
<svg version="1.1" xmlns="http://www.w3.org/2000/svg" viewBox="0 0 32 32">
    <defs>
        <style type="text/css" id="current-color-scheme">
            .ColorScheme-Text {
                color:#363636;
            }
        </style>
    </defs>
    <path class="ColorScheme-Text" style="fill:currentColor; fill-opacity:1; stroke:none" d="M 6 28 L 6 16 L 7 16 L 7 27 L 25 27 L 25 16 L 26 16 L 26 28 L 6 28 Z M 9 15 L 9 13 L 11 13 L 11 15 L 9 15 Z M 15 15 L 15 13 L 17 13 L 17 15 L 15 15 Z M 21 15 L 21 13 L 23 13 L 23 15 L 21 15 Z M 6 12 L 6 10 L 8 10 L 8 12 L 6 12 Z M 12 12 L 12 10 L 14 10 L 14 12 L 12 12 Z M 18 12 L 18 10 L 20 10 L 20 12 L 18 12 Z M 24 12 L 24 10 L 26 10 L 26 12 L 24 12 Z M 9 9 L 9 7 L 11 7 L 11 9 L 9 9 Z M 15 9 L 15 7 L 17 7 L 17 9 L 15 9 Z M 21 9 L 21 7 L 23 7 L 23 9 L 21 9 Z M 6 6 L 6 4 L 8 4 L 8 6 L 6 6 Z M 12 6 L 12 4 L 14 4 L 14 6 L 12 6 Z M 18 6 L 18 4 L 20 4 L 20 6 L 18 6 Z M 24 6 L 24 4 L 26 4 L 26 6 L 24 6 Z"/>
</svg>
